Numix/16/status/indicator-keyboard-Es-3.svg

<?xml version="1.0" encoding="UTF-8" standalone="no"?>
<svg
   xmlns:dc="http://purl.org/dc/elements/1.1/"
   xmlns:cc="http://creativecommons.org/ns#"
   xmlns:rdf="http://www.w3.org/1999/02/22-rdf-syntax-ns#"
   xmlns:svg="http://www.w3.org/2000/svg"
   xmlns="http://www.w3.org/2000/svg"
   xmlns:sodipodi="http://sodipodi.sourceforge.net/DTD/sodipodi-0.dtd"
   xmlns:inkscape="http://www.inkscape.org/namespaces/inkscape"
   viewBox="0 0 16 16"
   id="svg2"
   version="1.1"
   inkscape:version="0.91 r13725"
   sodipodi:docname="indicator-keyboard-Es-3.svg">
  <metadata
     id="metadata14">
    <rdf:RDF>
      <cc:Work
         rdf:about="">
        <dc:format>image/svg+xml</dc:format>
        <dc:type
           rdf:resource="http://purl.org/dc/dcmitype/StillImage" />
      </cc:Work>
    </rdf:RDF>
  </metadata>
  <defs
     id="defs12" />
  <sodipodi:namedview
     pagecolor="#ffffff"
     bordercolor="#666666"
     borderopacity="1"
     objecttolerance="10"
     gridtolerance="10"
     guidetolerance="10"
     inkscape:pageopacity="0"
     inkscape:pageshadow="2"
     inkscape:window-width="459"
     inkscape:window-height="369"
     id="namedview10"
     showgrid="false"
     inkscape:zoom="14.75"
     inkscape:cx="8"
     inkscape:cy="8"
     inkscape:window-x="65"
     inkscape:window-y="24"
     inkscape:window-maximized="0"
     inkscape:current-layer="svg2" />
  <path
     style="fill:#ececec;fill-opacity:1"
     d="M 1.5996094 0 C 0.71320937 2.9605947e-16 0 0.71320937 0 1.5996094 L 0 14.400391 C 2.9605947e-16 15.286791 0.71320937 16 1.5996094 16 L 14.400391 16 C 15.286791 16 16 15.286791 16 14.400391 L 16 1.5996094 C 16 0.71320937 15.286791 0 14.400391 0 L 1.5996094 0 z M 2.5742188 4.859375 L 6.1738281 4.859375 L 6.1738281 5.390625 L 3.1855469 5.390625 L 3.1855469 7.5585938 L 5.8496094 7.5585938 L 5.8496094 8.0800781 L 3.1855469 8.0800781 L 3.1855469 10.564453 L 6.4082031 10.564453 L 6.4082031 11.095703 L 2.5742188 11.095703 L 2.5742188 4.859375 z M 8.7910156 6.3359375 C 9.1090156 6.3359375 9.3702187 6.3620156 9.5742188 6.4160156 C 9.7842188 6.4700156 9.9296721 6.5185469 10.013672 6.5605469 L 9.8789062 7.0820312 C 9.8069063 7.0460313 9.6837656 6.9975 9.5097656 6.9375 C 9.3417656 6.8775 9.0936719 6.8476562 8.7636719 6.8476562 C 8.6316719 6.8476562 8.5047656 6.8625781 8.3847656 6.8925781 C 8.2707656 6.9165781 8.1700781 6.9595312 8.0800781 7.0195312 C 7.9900781 7.0735313 7.9172813 7.144375 7.8632812 7.234375 C 7.8092812 7.318375 7.7832031 7.4247812 7.7832031 7.5507812 C 7.7832031 7.6767813 7.8055156 7.7830469 7.8535156 7.8730469 C 7.9015156 7.9630469 7.9705469 8.0451875 8.0605469 8.1171875 C 8.1565469 8.1831875 8.2722969 8.2466406 8.4042969 8.3066406 C 8.5422969 8.3666406 8.6970937 8.4319062 8.8710938 8.5039062 C 9.0510938 8.5759063 9.2227656 8.6505156 9.3847656 8.7285156 C 9.5527656 8.8005156 9.7001719 8.8900469 9.8261719 8.9980469 C 9.9521717 9.1000469 10.052859 9.2269531 10.130859 9.3769531 C 10.208859 9.5209531 10.248047 9.7037813 10.248047 9.9257812 C 10.248047 10.345781 10.089484 10.664859 9.7714844 10.880859 C 9.4594844 11.096859 9.030375 11.203125 8.484375 11.203125 C 8.076375 11.203125 7.7648281 11.167703 7.5488281 11.095703 C 7.3328281 11.029703 7.1891875 10.979359 7.1171875 10.943359 L 7.2695312 10.412109 C 7.2875312 10.424109 7.3267188 10.444609 7.3867188 10.474609 C 7.4467187 10.498609 7.5269063 10.528453 7.6289062 10.564453 C 7.7309063 10.594453 7.8522344 10.622484 7.9902344 10.646484 C 8.1342344 10.670484 8.298375 10.681641 8.484375 10.681641 C 8.820375 10.681641 9.0965 10.627531 9.3125 10.519531 C 9.5345 10.405531 9.6445313 10.217125 9.6445312 9.953125 C 9.6445312 9.827125 9.6240313 9.7189063 9.5820312 9.6289062 C 9.5460313 9.5389063 9.4825781 9.4587187 9.3925781 9.3867188 C 9.3025781 9.3147187 9.1832031 9.2456875 9.0332031 9.1796875 C 8.8892031 9.1136875 8.7101406 9.0353125 8.4941406 8.9453125 C 8.3201406 8.8733125 8.1540469 8.8005156 7.9980469 8.7285156 C 7.8420469 8.6505156 7.7039844 8.56475 7.5839844 8.46875 C 7.4639844 8.36675 7.368875 8.2454219 7.296875 8.1074219 C 7.224875 7.9694219 7.1875 7.8015156 7.1875 7.6035156 C 7.1875 7.2255156 7.3293281 6.9195469 7.6113281 6.6855469 C 7.8993281 6.4515469 8.2930156 6.3359375 8.7910156 6.3359375 z M 12.056641 8.7539062 C 12.25944 8.7539062 12.433825 8.7793781 12.578125 8.8300781 C 12.726325 8.8807781 12.847813 8.953275 12.945312 9.046875 C 13.042812 9.136575 13.115309 9.2463 13.162109 9.375 C 13.208909 9.4997999 13.232422 9.6350031 13.232422 9.7832031 C 13.232422 10.021103 13.167763 10.217041 13.039062 10.369141 C 12.914262 10.517341 12.753588 10.625106 12.554688 10.691406 C 12.663888 10.718706 12.767741 10.759859 12.869141 10.818359 C 12.974441 10.872959 13.068491 10.945456 13.150391 11.035156 C 13.232291 11.120956 13.298909 11.226762 13.349609 11.351562 C 13.400309 11.476362 13.425781 11.623316 13.425781 11.791016 C 13.425781 11.962616 13.394431 12.119372 13.332031 12.263672 C 13.273531 12.407972 13.1834 12.535331 13.0625 12.644531 C 12.9455 12.749831 12.796581 12.834084 12.613281 12.896484 C 12.429981 12.954984 12.214449 12.984375 11.96875 12.984375 C 11.84005 12.984375 11.720528 12.974578 11.611328 12.955078 C 11.506028 12.939478 11.413931 12.919884 11.332031 12.896484 C 11.250131 12.873084 11.179594 12.849572 11.121094 12.826172 C 11.066494 12.802772 11.025347 12.783178 10.998047 12.767578 L 11.097656 12.427734 C 11.121056 12.443334 11.160244 12.462928 11.214844 12.486328 C 11.269444 12.509728 11.334103 12.533241 11.408203 12.556641 C 11.486203 12.576141 11.570462 12.593775 11.664062 12.609375 C 11.761562 12.624975 11.867369 12.632813 11.980469 12.632812 C 12.350968 12.632812 12.617444 12.556397 12.777344 12.404297 C 12.937244 12.248297 13.015625 12.040597 13.015625 11.779297 C 13.015625 11.607697 12.982316 11.464663 12.916016 11.351562 C 12.853616 11.238462 12.767397 11.148331 12.654297 11.082031 C 12.545097 11.011831 12.415778 10.962847 12.267578 10.935547 C 12.123279 10.904347 11.968487 10.888672 11.804688 10.888672 L 11.746094 10.888672 L 11.746094 10.574219 L 11.880859 10.574219 C 11.986159 10.574219 12.093926 10.564422 12.203125 10.544922 C 12.316225 10.521522 12.418113 10.480375 12.507812 10.421875 C 12.601412 10.363375 12.677828 10.285 12.736328 10.1875 C 12.798728 10.09 12.828125 9.9646001 12.828125 9.8125 C 12.828125 9.6838 12.808525 9.5760281 12.765625 9.4863281 C 12.722725 9.3927281 12.663944 9.3182719 12.589844 9.2636719 C 12.519644 9.2090719 12.435391 9.1698844 12.337891 9.1464844 C 12.244291 9.1191844 12.144362 9.1054687 12.039062 9.1054688 C 11.828462 9.1054688 11.665828 9.1348594 11.548828 9.1933594 C 11.431828 9.2518594 11.335819 9.3067219 11.261719 9.3574219 L 11.097656 9.0585938 C 11.136656 9.0312937 11.185641 8.9999437 11.244141 8.9648438 C 11.306541 8.9297437 11.379037 8.8964344 11.460938 8.8652344 C 11.542838 8.8340344 11.631016 8.8085625 11.728516 8.7890625 C 11.829916 8.7656625 11.939641 8.7539062 12.056641 8.7539062 z "
     id="path4" />
</svg>

<svg xmlns="http://www.w3.org/2000/svg" viewBox="0 0 16 16">
 <path d="m 1.6 0 c -0.886 0 -1.6 0.713 -1.6 1.6 l 0 12.801 c 0 0.886 0.713 1.6 1.6 1.6 l 12.801 0 c 0.886 0 1.6 -0.713 1.6 -1.6 l 0 -12.801 c 0 -0.886 -0.713 -1.6 -1.6 -1.6 l -12.801 0 z m 0.975 4.859 l 3.6 0 l 0 0.531 l -2.988 0 l 0 2.168 l 2.664 0 l 0 0.521 l -2.664 0 l 0 2.484 l 3.223 0 l 0 0.531 l -3.834 0 l 0 -6.236 z m 6.217 1.477 c 0.318 0 0.579 0.026 0.783 0.08 c 0.21 0.054 0.355 0.103 0.439 0.145 l -0.135 0.521 c -0.072 -0.036 -0.195 -0.085 -0.369 -0.145 c -0.168 -0.06 -0.416 -0.09 -0.746 -0.09 c -0.132 0 -0.259 0.015 -0.379 0.045 c -0.114 0.024 -0.215 0.067 -0.305 0.127 c -0.09 0.054 -0.163 0.125 -0.217 0.215 c -0.054 0.084 -0.08 0.19 -0.08 0.316 c 0 0.126 0.022 0.232 0.07 0.322 c 0.048 0.09 0.117 0.172 0.207 0.244 c 0.096 0.066 0.212 0.129 0.344 0.189 c 0.138 0.06 0.293 0.125 0.467 0.197 c 0.18 0.072 0.352 0.147 0.514 0.225 c 0.168 0.072 0.315 0.162 0.441 0.27 c 0.126 0.102 0.227 0.229 0.305 0.379 c 0.078 0.144 0.117 0.327 0.117 0.549 c 0 0.42 -0.159 0.739 -0.477 0.955 c -0.312 0.216 -0.741 0.322 -1.287 0.322 c -0.408 0 -0.72 -0.035 -0.936 -0.107 c -0.216 -0.066 -0.36 -0.116 -0.432 -0.152 l 0.152 -0.531 c 0.018 0.012 0.057 0.033 0.117 0.063 c 0.06 0.024 0.14 0.054 0.242 0.09 c 0.102 0.03 0.223 0.058 0.361 0.082 c 0.144 0.024 0.308 0.035 0.494 0.035 c 0.336 0 0.612 -0.054 0.828 -0.162 c 0.222 -0.114 0.332 -0.302 0.332 -0.566 c 0 -0.126 -0.02 -0.234 -0.063 -0.324 c -0.036 -0.09 -0.099 -0.17 -0.189 -0.242 c -0.09 -0.072 -0.209 -0.141 -0.359 -0.207 c -0.144 -0.066 -0.323 -0.144 -0.539 -0.234 c -0.174 -0.072 -0.34 -0.145 -0.496 -0.217 c -0.156 -0.078 -0.294 -0.164 -0.414 -0.26 c -0.12 -0.102 -0.215 -0.223 -0.287 -0.361 c -0.072 -0.138 -0.109 -0.306 -0.109 -0.504 c 0 -0.378 0.142 -0.684 0.424 -0.918 c 0.288 -0.234 0.682 -0.35 1.18 -0.35 z m 3.266 2.418 c 0.203 0 0.377 0.025 0.521 0.076 c 0.148 0.051 0.27 0.123 0.367 0.217 c 0.098 0.09 0.17 0.199 0.217 0.328 c 0.047 0.125 0.07 0.26 0.07 0.408 c 0 0.238 -0.065 0.434 -0.193 0.586 c -0.125 0.148 -0.285 0.256 -0.484 0.322 c 0.109 0.027 0.213 0.068 0.314 0.127 c 0.105 0.055 0.199 0.127 0.281 0.217 c 0.082 0.086 0.149 0.192 0.199 0.316 c 0.051 0.125 0.076 0.272 0.076 0.439 c 0 0.172 -0.031 0.328 -0.094 0.473 c -0.059 0.144 -0.149 0.272 -0.27 0.381 c -0.117 0.105 -0.266 0.19 -0.449 0.252 c -0.183 0.059 -0.399 0.088 -0.645 0.088 c -0.129 0 -0.248 -0.01 -0.357 -0.029 c -0.105 -0.016 -0.197 -0.035 -0.279 -0.059 c -0.082 -0.023 -0.152 -0.047 -0.211 -0.07 c -0.055 -0.023 -0.096 -0.043 -0.123 -0.059 l 0.1 -0.34 c 0.023 0.016 0.063 0.035 0.117 0.059 c 0.055 0.023 0.119 0.047 0.193 0.07 c 0.078 0.019 0.162 0.037 0.256 0.053 c 0.098 0.016 0.203 0.023 0.316 0.023 c 0.37 0 0.637 -0.076 0.797 -0.229 c 0.16 -0.156 0.238 -0.364 0.238 -0.625 c 0 -0.172 -0.033 -0.315 -0.1 -0.428 c -0.062 -0.113 -0.149 -0.203 -0.262 -0.27 c -0.109 -0.07 -0.239 -0.119 -0.387 -0.146 c -0.144 -0.031 -0.299 -0.047 -0.463 -0.047 l -0.059 0 l 0 -0.314 l 0.135 0 c 0.105 0 0.213 -0.01 0.322 -0.029 c 0.113 -0.023 0.215 -0.065 0.305 -0.123 c 0.094 -0.059 0.17 -0.137 0.229 -0.234 c 0.062 -0.098 0.092 -0.223 0.092 -0.375 c 0 -0.129 -0.02 -0.236 -0.063 -0.326 c -0.043 -0.094 -0.102 -0.168 -0.176 -0.223 c -0.07 -0.055 -0.154 -0.094 -0.252 -0.117 c -0.094 -0.027 -0.194 -0.041 -0.299 -0.041 c -0.211 0 -0.373 0.029 -0.49 0.088 c -0.117 0.059 -0.213 0.113 -0.287 0.164 l -0.164 -0.299 c 0.039 -0.027 0.088 -0.059 0.146 -0.094 c 0.062 -0.035 0.135 -0.068 0.217 -0.1 c 0.082 -0.031 0.17 -0.057 0.268 -0.076 c 0.101 -0.023 0.211 -0.035 0.328 -0.035 z" style="fill:#ececec;fill-opacity:1"/>
</svg>
